svg/Octicons/tag.svg

<svg xmlns="http://www.w3.org/2000/svg" viewBox="0 0 896 1024"><path d="m384 64h-256l-128 128v256l512 512 384-384-512-512m-320 352v-192l96-96h192l448 448-288 288-448-448m384-96l-192 192 256 256 192-192-256-256m-96 192l96-96 160 160-96 96-160-160m-32-224c0-53-43-96-96-96s-96 43-96 96 43 96 96 96 96-43 96-96m-96 32c-17.656 0-32-14.344-32-32s14.344-32 32-32 32 14.344 32 32-14.344 32-32 32"/></svg>

<svg height="1024" width="896" xmlns="http://www.w3.org/2000/svg">
  <path d="M384 64H128L0 192v256l512 512 384-384L384 64zM64 416V224l96-96h192l448 448L512 864 64 416zM448 320L256 512l256 256 192-192L448 320zM352 512l96-96 160 160-96 96L352 512zM320 288c0-53-43-96-96-96s-96 43-96 96 43 96 96 96S320 341 320 288zM224 320c-17.656 0-32-14.344-32-32s14.344-32 32-32 32 14.344 32 32S241.656 320 224 320z" />
</svg>
